icons/folder-arrow-left-outline.svg

<svg xmlns="http://www.w3.org/2000/svg" width="24" height="24" viewBox="0 0 24 24">
  <path d="M11,4 C11.2652165,4 11.5195704,4.10535684 11.7071068,4.29289322 L11.7071068,4.29289322 L13.415,6 L19,6 C20.5976809,6 21.9036609,7.24891996 21.9949073,8.82372721 L21.9949073,8.82372721 L22,9 L22,17 C22,18.6568542 20.6568542,20 19,20 L19,20 L5,20 C3.34314575,20 2,18.6568542 2,17 L2,17 L2,7 C2,5.34314575 3.34314575,4 5,4 L5,4 Z M10.585,6 L5,6 C4.44771525,6 4,6.44771525 4,7 L4,7 L4,17 C4,17.5522847 4.44771525,18 5,18 L5,18 L19,18 C19.5522847,18 20,17.5522847 20,17 L20,17 L20,9 C20,8.44771525 19.5522847,8 19,8 L19,8 L13,8 C12.7347835,8 12.4804296,7.89464316 12.2928932,7.70710678 L12.2928932,7.70710678 L10.585,6 Z M8.001,13.059 L8.002,13.059 L8,13.018 L8,13 L8.00004511,12.9904013 L8.00018018,12.980824 L8.0017331,12.9409686 C8.00232561,12.9308872 8.00307004,12.9208131 8.00399798,12.909968 L8.00399798,12.909968 L8.0110178,12.8515331 C8.01362808,12.834051 8.01670217,12.8166247 8.02016515,12.7992059 C8.0246398,12.7772539 8.02983363,12.7555635 8.03584514,12.734007 C8.04009773,12.7185367 8.04472872,12.7031487 8.04954668,12.6882636 C8.05612249,12.6682023 8.06331574,12.6484208 8.07122549,12.628664 L8.07122549,12.628664 L8.09365378,12.5769009 C8.10337664,12.5561086 8.11379392,12.5357061 8.12467117,12.5159379 L8.12467117,12.5159379 L8.14606743,12.4793398 C8.1617187,12.453725 8.17849009,12.4288693 8.19633458,12.4046934 L8.19633458,12.4046934 L8.22,12.374 L8.216,12.378 L8.21968877,12.374551 L8.232,12.359 L8.24220802,12.347434 L8.24220802,12.347434 L8.29289322,12.2928932 L11.2928932,9.29289322 L11.3871006,9.20970461 C11.7793918,8.90467972 12.3466228,8.93240926 12.7071068,9.29289322 C13.0976311,9.68341751 13.0976311,10.3165825 12.7071068,10.7071068 L12.7071068,10.7071068 L11.415,12 L15,12 L15.1166211,12.0067277 C15.6139598,12.0644928 16,12.4871642 16,13 C16,13.5522847 15.5522847,14 15,14 L15,14 L11.415,14 L12.7071068,15.2928932 L12.7902954,15.3871006 C13.0953203,15.7793918 13.0675907,16.3466228 12.7071068,16.7071068 C12.3165825,17.0976311 11.6834175,17.0976311 11.2928932,16.7071068 L11.2928932,16.7071068 L8.29289322,13.7071068 L8.21968877,13.625449 C8.2173721,13.6225624 8.21507113,13.6196628 8.20970461,13.6128994 C8.20517454,13.6070733 8.20071786,13.6012086 8.19631351,13.5951593 C8.17849009,13.5711307 8.1617187,13.546275 8.14599545,13.5207088 C8.13860692,13.5086131 8.13149883,13.4963944 8.12487577,13.484277 C8.11379392,13.4642939 8.10337664,13.4438914 8.09367336,13.4232215 L8.09367336,13.4232215 L8.07110396,13.3710585 C8.06331574,13.3515792 8.05612249,13.3317977 8.04973809,13.3121425 C8.04472872,13.2968513 8.04009773,13.2814633 8.03572097,13.2658396 C8.02983363,13.2444365 8.0246398,13.2227461 8.02024007,13.2007258 C8.01670217,13.1833753 8.01362808,13.165949 8.01101934,13.1489612 C8.00376119,13.1003621 8,13.0506203 8,13 L8.001,13.059 Z"/>
</svg>

<svg xmlns="http://www.w3.org/2000/svg" viewBox="0 0 24 24">
  <path d="M11 4a1 1 0 0 1 .7.3L13.42 6H19a3 3 0 0 1 3 2.82V17a3 3 0 0 1-3 3H5a3 3 0 0 1-3-3V7a3 3 0 0 1 3-3zm-.41 2H5a1 1 0 0 0-1 1v10a1 1 0 0 0 1 1h14a1 1 0 0 0 1-1V9a1 1 0 0 0-1-1h-6a1 1 0 0 1-.7-.3L10.58 6zM8 13.06v-.15l.01-.06a1.1 1.1 0 0 1 .06-.22l.02-.05.03-.06.03-.04.05-.08.02-.03.01-.01.01-.01.05-.06 3-3 .1-.08a1 1 0 0 1 1.32 1.5L11.4 12h3.71a1 1 0 0 1-.12 2H11.4l1.3 1.3.08.09a1 1 0 0 1-1.5 1.32l-3-3-.07-.08a3.01 3.01 0 0 1-.1-.15 1.02 1.02 0 0 1-.03-.06l-.02-.05A.95.95 0 0 1 8 13v.06z"/>
</svg>
